packages/tokens/icons/shieldCheck/size24Px.svg

<svg viewBox="0 0 24 24" fill="none" xmlns="http://www.w3.org/2000/svg" width="1em" height="1em"><path d="M16.5 9L11 14.5L9 12.5" stroke="currentColor" stroke-linecap="round" stroke-linejoin="round"/><path d="M5.29229 4.35342C8.11197 5.40551 10.1001 3.92065 11.2673 2.76859C11.6772 2.36397 12.3227 2.36397 12.7326 2.76859C13.8998 3.92066 15.8878 5.40552 18.7075 4.35342C19.1736 4.17952 19.7231 4.2978 19.9373 4.74675C21.7319 8.50757 20.0279 16.0025 12.5406 21.1397C12.216 21.3625 11.784 21.3625 11.4594 21.1397C3.97214 16.0025 2.26791 8.50758 4.06245 4.74677C4.27668 4.2978 4.82622 4.17952 5.29229 4.35342Z" stroke="currentColor" stroke-linecap="round"/></svg>

<svg xmlns="http://www.w3.org/2000/svg" fill="none" viewBox="0 0 24 24" width="1em" height="1em"><path stroke="currentColor" stroke-linecap="round" stroke-linejoin="round" d="M16.5 9 11 14.5l-2-2"/><path stroke="currentColor" stroke-linecap="round" d="M5.292 4.353c2.82 1.053 4.808-.432 5.975-1.584a1.036 1.036 0 0 1 1.466 0c1.167 1.152 3.155 2.637 5.974 1.584.467-.173 1.016-.055 1.23.394 1.795 3.76.09 11.256-7.396 16.393a.958.958 0 0 1-1.082 0C3.972 16.003 2.268 8.508 4.062 4.747c.215-.45.764-.567 1.23-.394Z"/></svg>
